X:21
T:RVW2/2/21 L'homme Arme
L:1/4
Q:1/4=180
M:3/4
I:linebreak $
K:F
"^(Editorial suggestion) " G2 G | c2 c | B A2 | G3 | d2 d | G3 | d2 d | d2 c | B2 A | G3 |: g2 g | 
f2 f | g2 g |$ d3 :| g2 g | a2 g | f e2 | d3 |: c2 c | B2 B | c2 c | G3 :| c2 c | d2 c | B A2 | 
G3 |] 



